X:1
T:Gone Were But the Winter Cold
T:Gone Were But the Winter Cold
T:Copyright © CPDL
T:Copyright © CPDL
T:Copyright © CPDL
T:Copyright © CPDL
Z:Copyright © CPDL
%%score 1 ( 2 3 ) ( 4 5 )
L:1/8
Q:1/4=65
M:3/4
K:C#min
V:1 treble nm="P1"
V:2 treble nm="P2"
V:3 treble 
V:4 bass nm="P3"
V:5 bass 
V:1
"^Editor: John Henry Fowler""^(  Revision:   4 - 6 - 2008  )""^Lento, espressivo" z2 | %1
w: |
"^Words by Alan Cunningham" z6 |"^Charles Hubert Hastings Parry""^( 1848 - 1918 )" z6 | z6 | z6 | %5
w: ||||
 z6 | z6 | c3 B AG | ^^F^A c3 d | e3 d c>B | c4 EF | G4 G>A | (Bc) d4- | %13
w: ||Gone were but the|win- ter cold, And|gone were but the|snow, I could|sleep in the|wild- wood _|
!<(! d2!<)!!>(! !fermata!e3!>)! d | c2 (BA) (FD) |"^a tempo" C4 z2 | z6 | z6 | z6 | z6 | z6 | %21
w: _ Where the|prim- ro- * ses _|blow.||||||
"^poco più mosso"!mf! z6 | !>!c3 B (3ABG | ^^F4 c2 | (e3!>(! d) c!>)!B | c4!p! A>E | (FG A2) Bc | %27
w: |Cold's the snow at my|head And|cold _ at my|feet; And the|fin~\-- * * \-~~ger of|
 G2 FE B2 |"^slower"!<(! (A=d!<)! f2!>(! e!>)!d | c)A E2!pp! z F | G6- | G2 z2 z2 | z6 | z6 | %34
w: death at my e'~en|clos~\-- * * * *|* \-~~ing them in|sleep|_|||
 z2 z2!p!"^Poco più mosso. semplice" G2 ||[M:4/4] ^A4!<(! ^B2!<)! d2 |!>(! (cG)!>)! G4!p! G^A | %37
w: Let|none tell my|fa- * ther, nor my|
 (Bced f)e z c | A6!p! B2 | G2 B2 (g2 f)e | (d/e/f-) f4"^rit." F>G | %41
w: moth- * * * * er so|dear; I'll|meet them both _ in|heav'n _ _ _ at the|
!<(! (AB!<)!c!>(!e-) e!>)! E2 D | C6 z2 | z8 | z8 |] %45
w: spring _ _ _ _ of the|year.|||
V:2
 (E>F | D)!mf!(!>!A!>(! G/F/C/!>)!A,/)!p! (E>G | D)!mf!(!>!c!<(! B/A/)!<)!!>(!(F/!>)!D/) (G>^A | %3
 ^^FD) !tenuto!D2 (^F>G | ^EC) !tenuto!C2 z2 | (=EC)"^dim." !tenuto!C2 z2 | (EC) !tenuto!C2 z2 | %7
 (!>!E.C) !tenuto!C2 z2 | ([^^F,E]C) (C2 D2) |!<(! (EC)!<)!!>(! !tenuto!C2!>)! z2 | z2 (cA- e2) | %11
 (G2 FD) (3(.E.D.C) | D2 (DB, C^A, | ^B,2) z2 (B,2 | C2) (C2 D2) | [E,G,]4[K:treble] (E>F | %16
 D)(!>!A G/F/C/A,/) (E>G | D)(!>!c!>(! B/A/F/D/)!>)! (G>^A | ^^FD) D2 (^F>G | ^EC) !tenuto!C2 z2 | %20
 (=EC) !tenuto!C2 z2 | (EC) !tenuto!C2 z2 | (EC) !tenuto!C2 z2 | (EC) !tenuto!C2 z2 | EC G4 | %25
 z2 (cA e2) | z2 (FC [DA]2) | z2 (GE B,2) | (AF) F4 | (EC)[K:bass] C4 | (^B,G,) ^A,3 z | %31
 ([^B,D][G,B,]) C3 z | (GE) (FD) (EC) | (D^A,) (^B,G,) G2- | G2 z2[K:treble] G2 || %35
[M:4/4] ^^F4 G2 [Gd]2 | c4 E4 | (F2 B2- (B2) AG) | [A,A]6 [B,F]2 | ([EG]2 [DF]2 B3 G) | %40
 [DF]2 (dc BF) F2- | F2 z2 z2[K:bass] [F,G,^B,]2 | (CDE!p!G) (A,3 B,) | (!>!C.G,) G,4 (!>!C.G,) | %44
 [E,G,]8 |] %45
V:3
 ([G,C]2 | [F,C]2) x2 ([G,C]2 | [F,C]2) x2 x2 | x6 | x6 | x6 | [E,G,]2 x2 x2 | [E,G,]2 x2 x2 | %8
 E,2 [G,G]4 | [E,G,]2 x2 x2 | x2 E2- [EA]2 | [G,B,]2 [F,^B,]2 [E,G,]2 | [D,G,]2 (G,2 ^^F,2 | %13
 G,2) x2 (F,2 | E,2) A,4 | x4[K:treble] ([G,C-]2 | [F,C]2) x2 ([F,C-]2 | [F,C]2) x2 x2 | x6 | x6 | %20
 A,3 z x2 | [G,B,]3 z x2 | [G,B,]3 z x2 | [E,^^F,]3 z x2 | [E,G,]2 [G,C]2 [G,D]2 | x2 E4 | x2 A,4 | %27
 x2 G,4 | [A,=D]6 | [A,C]2[K:bass] z2 [D,F,]2 | [D,G,]2 C,3 x | D,2 ^A,3 x | %32
 [G,^B,]2 [A,C]2 [G,=B,]2 | ^^F,2 ^F,2 z2 | x4[K:treble] C2 ||[M:4/4] D6 D2 | G4 C4 | %37
 [B,D]4 [B,E]2 E2- | (E2 DC E2 D2) | B,2 A,2 E3 E | B,2 [DF]2 z2 [B,=D]2 | [A,C]2 x2 x4[K:bass] | %42
 [E,G,]3 z (G,F,E,D,) | E,6 [D,F,]2 | x8 |] %45
V:4
!p! (G,,2 |{^^F,,G,,} A,,) z z2 (G,,2 |{^^F,,G,,} A,,) z z2 C2 |"^dim." D z z2!p! ^B,2 | %4
 C z z2 z2 |!p! [A,,E,A,]4 z2 | [C,,G,,C,]4 z2 | [C,,G,,C,]4 z2 | [C,,^A,,C,]4 z2 | %9
!mf! [C,,G,,C,]2 [E,,G,,E,]2 [G,,D,]2 | [A,,,A,,]2!mp! [E,A,C]4 | G,,4 G,,2- | G,,2 D,4- | %13
 D,2 z2 (G,,2 |"^dim." A,,2)"^rit." (C,2 D,2) |"^a tempo" [C,,G,,]4 (G,,2 | %16
{^^F,,G,,} A,,) z z2 (G,,2 |{^^F,,G,,} A,,)!mf! z!>(! z2!>)!"^dim." C2 | D z z2 ^B,2 | C z z2 z2 | %20
 C,3 z z2 | C,3 z z2 | C,3 z z2 | C,3 z z2 |!mf!!<(! G,,2!<)!!>(! C,2!>)! D,2 | z2!p! [E,A,C]4 | %26
 C,4 B,,2 | B,,4 z2 | =D,6 | A,,6 | (G,,2 E,,2 ^A,,2) |"^cresc." (G,,2 E,,2 ^A,,2) | %32
!mf!"^dim." (G,,2 D,,2 G,,2) | ^A,,2 D,2 z2 | z2 z2 G,2 ||[M:4/4] ^A,4!<(! ^B,2 A,!<)!B, | %36
!>(! C4!>)! E,4 | (F,4 E,2) E,2- | E,2!<(! D,C,!<)!!>(! E,2!>)! D,2 | (B,,4 G,3) A, | %40
 F,4 x2"^rit." F,2- | [F,,C,F,]2 z2 z2 [G,,,G,,]2 |"^a tempo"!<(! [C,,G,,]8!<)! | %43
"^dim. e rit." [C,,G,,]8 | [C,,G,,]8 |] %45
V:5
 (C,,2 | C,,) x x2 (C,,2 | C,,) x x2 ([E,G,]2 | [D,^A,]) x x2 [=D,G,]2- | [D,G,] x x2 x2 | x6 | %6
 x6 | x6 | x6 | x6 | x6 | (E,,2 D,,2) C,,2- | C,,2 (B,,2 ^A,,2) | G,,2 x2 x2 | x2 F,,4 | x4 (C,,2 | %16
 C,,) x x2 (C,,2 | C,,) x x2 ([E,G,]2 | [D,^A,]) x x2 ([=D,G,]2 | [C,G,]) x x2 x2 | A,,3 x x2 | %21
 [C,,G,,]3 x x2 | [C,,G,,]3 x x2 | [C,,^A,,]3 x x2 | C,,2 (E,,2 G,,2) | [A,,,A,,]4 z2 | F,,6 | %27
 E,,4 x2 | F,,6 | x6 | G,,,6 | G,,,6 | G,,,6 | (G,,,2 G,,2) z2 | z4 E,2 ||[M:4/4] D,8 | D,4 C,4 | %37
 (B,,4 G,,4 | F,,4) B,,4 | E,,6 x2 | B,,4 x2 B,,2 | x4 x4 | x8 | x8 | x8 |] %45

